X: 1
T: John MacDonald's Exercise
M: 6/8
L: 1/8
R: jig
K: Dmaj
|:FAA DAA|FAA d2A|FAA DAA|d2A BAA|
FAA DAA|FAA d2A|BdB DBA|BFF GEE:|
|:FAA dAA|Bdd B2A|FAA d2A|Bd=c BAA|
FAA dAA|Bdd B2A|BdB DBA|BFF GEE:|
|:ABF ABD|FAD ABF|BdB DBB|dAA BFF|
ABF ABD|FAD ABF|BdB DBA |BFF GEE:|
|:~F3 Fdd|GBB FAA|~F3 Fdd|GBB BAG|
~F3 Fdd|GBB FAA|BdB DBA|BFF GEE:|
